images/icons/dark/сode.svg

<svg height="80" viewBox="0 0 80 80" width="80" xmlns="http://www.w3.org/2000/svg" xmlns:xlink="http://www.w3.org/1999/xlink"><defs><path id="a" d="m0 0v12.8571429 47.1428571h60v-60zm4.28571429 12.8571429h51.42964281v-8.57142861h-51.42964281zm0 42.8571428v-38.5714286h51.42964281v38.5714286zm17.77382141-13.91775-5.3678571-5.3678571 5.3678571-5.3689286-3.03-3.03-8.3989286 8.3989286 8.3989286 8.3978571zm18.9111429 3.0301072 8.3989285-8.3978572-8.3989285-8.3989286-3.03 3.03 5.3678571 5.3689286-5.3678571 5.3678572zm-5.7866786-17.235-4.0682143-1.3478572-6.3 19.0210714 4.0682143 1.3478572zm-26.61257143-21.16328576c1.18285714 0 2.14285713.96 2.14285713 2.14285715 0 1.18285714-.95999999 2.14285711-2.14285713 2.14285711s-2.14285714-.95999997-2.14285714-2.14285711c0-1.18285715.96-2.14285715 2.14285714-2.14285715zm6.42857143 0c1.1828571 0 2.1428571.96 2.1428571 2.14285715 0 1.18285714-.96 2.14285711-2.1428571 2.14285711s-2.1428571-.95999997-2.1428571-2.14285711c0-1.18285715.96-2.14285715 2.1428571-2.14285715zm6.4285714 0c1.1828572 0 2.1428572.96 2.1428572 2.14285715 0 1.18285714-.96 2.14285711-2.1428572 2.14285711-1.1828571 0-2.1428571-.95999997-2.1428571-2.14285711 0-1.18285715.96-2.14285715 2.1428571-2.14285715z"/><filter id="b" height="103.3%" width="106.7%" x="-1.7%" y="-1.7%"><feOffset dx="2" dy="0" in="SourceAlpha" result="shadowOffsetOuter1"/><feColorMatrix in="shadowOffsetOuter1" type="matrix" values="0 0 0 0 0.0901960784   0 0 0 0 0.882352941   0 0 0 0 0.996078431  0 0 0 1 0"/></filter><path id="c" d="m2 0v12.8571429 47.1428571h60v-60zm4.28571429 12.8571429h51.42964281v-8.57142861h-51.42964281zm0 42.8571428v-38.5714286h51.42964281v38.5714286zm17.77382141-13.91775-5.3678571-5.3678571 5.3678571-5.3689286-3.03-3.03-8.3989286 8.3989286 8.3989286 8.3978571zm18.9111429 3.0301072 8.3989285-8.3978572-8.3989285-8.3989286-3.03 3.03 5.3678571 5.3689286-5.3678571 5.3678572zm-5.7866786-17.235-4.0682143-1.3478572-6.3 19.0210714 4.0682143 1.3478572zm-26.6125714-21.16328576c1.1828571 0 2.1428571.96 2.1428571 2.14285715 0 1.18285714-.96 2.14285711-2.1428571 2.14285711-1.18285717 0-2.14285717-.95999997-2.14285717-2.14285711 0-1.18285715.96-2.14285715 2.14285717-2.14285715zm6.4285714 0c1.1828571 0 2.1428571.96 2.1428571 2.14285715 0 1.18285714-.96 2.14285711-2.1428571 2.14285711s-2.1428571-.95999997-2.1428571-2.14285711c0-1.18285715.96-2.14285715 2.1428571-2.14285715zm6.4285714 0c1.1828572 0 2.1428572.96 2.1428572 2.14285715 0 1.18285714-.96 2.14285711-2.1428572 2.14285711-1.1828571 0-2.1428571-.95999997-2.1428571-2.14285711 0-1.18285715.96-2.14285715 2.1428571-2.14285715z"/><filter id="d" height="101.7%" width="101.7%" x="-.8%" y="-.8%"><feOffset dx="1" dy="0" in="SourceAlpha" result="shadowOffsetInner1"/><feComposite in="shadowOffsetInner1" in2="SourceAlpha" k2="-1" k3="1" operator="arithmetic" result="shadowInnerInner1"/><feColorMatrix in="shadowInnerInner1" type="matrix" values="0 0 0 0 1   0 0 0 0 0.152941176   0 0 0 0 0.321568627  0 0 0 0.5 0"/></filter><mask id="e" fill="#fff"><use fill="#fff" fill-rule="evenodd" xlink:href="#a"/></mask></defs><g fill="none" fill-rule="evenodd" transform="translate(10 10)"><use fill="#000" filter="url(#b)" xlink:href="#a"/><use fill="#ff2752" fill-rule="evenodd" xlink:href="#a"/><g fill="#000" mask="url(#e)"><use fill-rule="evenodd" xlink:href="#c"/><use filter="url(#d)" xlink:href="#c"/></g></g></svg>

<?xml version="1.0" encoding="UTF-8"?>
<svg width="80px" height="80px" viewBox="0 0 80 80" version="1.1" xmlns="http://www.w3.org/2000/svg" xmlns:xlink="http://www.w3.org/1999/xlink">
    <!-- Generator: Sketch 49.1 (51147) - http://www.bohemiancoding.com/sketch -->
    <title>Atoms/Icons/80/Code</title>
    <desc>Created with Sketch.</desc>
    <defs>
        <path d="M0,0 L0,12.8571429 L0,60 L60,60 L60,0 L0,0 Z M4.28571429,12.8571429 L55.7153571,12.8571429 L55.7153571,4.28571429 L4.28571429,4.28571429 L4.28571429,12.8571429 Z M4.28571429,55.7142857 L4.28571429,17.1428571 L55.7153571,17.1428571 L55.7153571,55.7142857 L4.28571429,55.7142857 Z M22.0595357,41.7965357 L16.6916786,36.4286786 L22.0595357,31.05975 L19.0295357,28.02975 L10.6306071,36.4286786 L19.0295357,44.8265357 L22.0595357,41.7965357 Z M40.9706786,44.8266429 L49.3696071,36.4287857 L40.9706786,28.0298571 L37.9406786,31.0598571 L43.3085357,36.4287857 L37.9406786,41.7966429 L40.9706786,44.8266429 Z M35.184,27.5916429 L31.1157857,26.2437857 L24.8157857,45.2648571 L28.884,46.6127143 L35.184,27.5916429 Z M8.57142857,6.42835714 C9.75428571,6.42835714 10.7142857,7.38835714 10.7142857,8.57121429 C10.7142857,9.75407143 9.75428571,10.7140714 8.57142857,10.7140714 C7.38857143,10.7140714 6.42857143,9.75407143 6.42857143,8.57121429 C6.42857143,7.38835714 7.38857143,6.42835714 8.57142857,6.42835714 Z M15,6.42835714 C16.1828571,6.42835714 17.1428571,7.38835714 17.1428571,8.57121429 C17.1428571,9.75407143 16.1828571,10.7140714 15,10.7140714 C13.8171429,10.7140714 12.8571429,9.75407143 12.8571429,8.57121429 C12.8571429,7.38835714 13.8171429,6.42835714 15,6.42835714 Z M21.4285714,6.42835714 C22.6114286,6.42835714 23.5714286,7.38835714 23.5714286,8.57121429 C23.5714286,9.75407143 22.6114286,10.7140714 21.4285714,10.7140714 C20.2457143,10.7140714 19.2857143,9.75407143 19.2857143,8.57121429 C19.2857143,7.38835714 20.2457143,6.42835714 21.4285714,6.42835714 Z" id="path-1"></path>
        <filter x="-1.7%" y="-1.7%" width="106.7%" height="103.3%" filterUnits="objectBoundingBox" id="filter-3">
            <feOffset dx="2" dy="0" in="SourceAlpha" result="shadowOffsetOuter1"></feOffset>
            <feColorMatrix values="0 0 0 0 0.0901960784   0 0 0 0 0.882352941   0 0 0 0 0.996078431  0 0 0 1 0" type="matrix" in="shadowOffsetOuter1"></feColorMatrix>
        </filter>
        <path d="M2,0 L2,12.8571429 L2,60 L62,60 L62,0 L2,0 Z M6.28571429,12.8571429 L57.7153571,12.8571429 L57.7153571,4.28571429 L6.28571429,4.28571429 L6.28571429,12.8571429 Z M6.28571429,55.7142857 L6.28571429,17.1428571 L57.7153571,17.1428571 L57.7153571,55.7142857 L6.28571429,55.7142857 Z M24.0595357,41.7965357 L18.6916786,36.4286786 L24.0595357,31.05975 L21.0295357,28.02975 L12.6306071,36.4286786 L21.0295357,44.8265357 L24.0595357,41.7965357 Z M42.9706786,44.8266429 L51.3696071,36.4287857 L42.9706786,28.0298571 L39.9406786,31.0598571 L45.3085357,36.4287857 L39.9406786,41.7966429 L42.9706786,44.8266429 Z M37.184,27.5916429 L33.1157857,26.2437857 L26.8157857,45.2648571 L30.884,46.6127143 L37.184,27.5916429 Z M10.5714286,6.42835714 C11.7542857,6.42835714 12.7142857,7.38835714 12.7142857,8.57121429 C12.7142857,9.75407143 11.7542857,10.7140714 10.5714286,10.7140714 C9.38857143,10.7140714 8.42857143,9.75407143 8.42857143,8.57121429 C8.42857143,7.38835714 9.38857143,6.42835714 10.5714286,6.42835714 Z M17,6.42835714 C18.1828571,6.42835714 19.1428571,7.38835714 19.1428571,8.57121429 C19.1428571,9.75407143 18.1828571,10.7140714 17,10.7140714 C15.8171429,10.7140714 14.8571429,9.75407143 14.8571429,8.57121429 C14.8571429,7.38835714 15.8171429,6.42835714 17,6.42835714 Z M23.4285714,6.42835714 C24.6114286,6.42835714 25.5714286,7.38835714 25.5714286,8.57121429 C25.5714286,9.75407143 24.6114286,10.7140714 23.4285714,10.7140714 C22.2457143,10.7140714 21.2857143,9.75407143 21.2857143,8.57121429 C21.2857143,7.38835714 22.2457143,6.42835714 23.4285714,6.42835714 Z" id="path-4"></path>
        <filter x="-0.8%" y="-0.8%" width="101.7%" height="101.7%" filterUnits="objectBoundingBox" id="filter-5">
            <feOffset dx="1" dy="0" in="SourceAlpha" result="shadowOffsetInner1"></feOffset>
            <feComposite in="shadowOffsetInner1" in2="SourceAlpha" operator="arithmetic" k2="-1" k3="1" result="shadowInnerInner1"></feComposite>
            <feColorMatrix values="0 0 0 0 1   0 0 0 0 0.152941176   0 0 0 0 0.321568627  0 0 0 0.5 0" type="matrix" in="shadowInnerInner1"></feColorMatrix>
        </filter>
    </defs>
    <g id="Atoms/Icons/80/Code" stroke="none" stroke-width="1" fill="none" fill-rule="evenodd">
        <g id="Icn" transform="translate(10.000000, 10.000000)">
            <mask id="mask-2" fill="white">
                <use xlink:href="#path-1"></use>
            </mask>
            <g id="Mask">
                <use fill="black" fill-opacity="1" filter="url(#filter-3)" xlink:href="#path-1"></use>
                <use fill="#FF2752" fill-rule="evenodd" xlink:href="#path-1"></use>
            </g>
            <g id="Combined-Shape" mask="url(#mask-2)">
                <use fill="#000000" fill-rule="evenodd" xlink:href="#path-4"></use>
                <use fill="black" fill-opacity="1" filter="url(#filter-5)" xlink:href="#path-4"></use>
            </g>
        </g>
    </g>
</svg>
